actions/16/node-add.svg

<?xml version="1.0" encoding="UTF-8" standalone="no"?>
<svg
   xmlns:dc="http://purl.org/dc/elements/1.1/"
   xmlns:cc="http://creativecommons.org/ns#"
   xmlns:rdf="http://www.w3.org/1999/02/22-rdf-syntax-ns#"
   xmlns:svg="http://www.w3.org/2000/svg"
   xmlns="http://www.w3.org/2000/svg"
   xmlns:xlink="http://www.w3.org/1999/xlink"
   id="svg4588"
   height="16"
   width="16"
   version="1.0">
  <defs
     id="defs4590">
    <linearGradient
       id="linearGradient7442">
      <stop
         offset="0"
         style="stop-color:#ffffff;stop-opacity:1"
         id="stop7444" />
      <stop
         offset="1"
         style="stop-color:#ffffff;stop-opacity:0"
         id="stop7446" />
    </linearGradient>
    <linearGradient
       id="linearGradient7430">
      <stop
         offset="0"
         style="stop-color:#d3d7cf;stop-opacity:1"
         id="stop7432" />
      <stop
         offset="1"
         style="stop-color:#fafbfa;stop-opacity:1"
         id="stop7434" />
    </linearGradient>
    <linearGradient
       id="linearGradient8343">
      <stop
         offset="0"
         style="stop-color:#babdb6;stop-opacity:0"
         id="stop8345" />
      <stop
         offset="0.2"
         style="stop-color:#babdb6;stop-opacity:1"
         id="stop8351" />
      <stop
         offset="0.84444445"
         style="stop-color:#babdb6;stop-opacity:1"
         id="stop8353" />
      <stop
         offset="1"
         style="stop-color:#babdb6;stop-opacity:0"
         id="stop8347" />
    </linearGradient>
    <linearGradient
       id="linearGradient8331">
      <stop
         offset="0"
         style="stop-color:#555753;stop-opacity:0"
         id="stop8333" />
      <stop
         offset="0.2"
         style="stop-color:#555753;stop-opacity:1"
         id="stop8339" />
      <stop
         offset="0.80000001"
         style="stop-color:#555753;stop-opacity:1"
         id="stop8341" />
      <stop
         offset="1"
         style="stop-color:#555753;stop-opacity:0"
         id="stop8335" />
    </linearGradient>
    <linearGradient
       gradientTransform="matrix(1.294118,0,0,1,1.705882,-13.00043)"
       gradientUnits="userSpaceOnUse"
       xlink:href="#linearGradient8331"
       id="linearGradient4753"
       y2="423.45538"
       x2="1.0000585"
       y1="423.45538"
       x1="-16.000061" />
    <linearGradient
       gradientTransform="matrix(1.294118,0,0,1.005236,1.705882,-15.2096)"
       gradientUnits="userSpaceOnUse"
       xlink:href="#linearGradient8343"
       id="linearGradient4755"
       y2="423.58575"
       x2="0.58696824"
       y1="423.58575"
       x1="-16.000221" />
    <linearGradient
       gradientTransform="matrix(0.972219,0,0,0.972223,-21.62494,34.18037)"
       gradientUnits="userSpaceOnUse"
       xlink:href="#linearGradient7430"
       id="linearGradient4757"
       y2="404.59772"
       x2="15.698984"
       y1="401.09631"
       x1="12.197592" />
    <linearGradient
       gradientTransform="matrix(0.874995,0,0,0.875009,-20.31242,73.30893)"
       gradientUnits="userSpaceOnUse"
       xlink:href="#linearGradient7442"
       id="linearGradient4759"
       y2="406.51099"
       x2="12.816311"
       y1="400.38895"
       x1="12.816311" />
    <radialGradient
       gradientTransform="matrix(0,0.38528829,-0.41958841,0,25.389782,-23.793293)"
       gradientUnits="userSpaceOnUse"
       xlink:href="#linearGradient3242-7-3-8-0-4-58-06"
       id="radialGradient3259"
       fy="48.605404"
       fx="64.575233"
       r="31.000002"
       cy="48.605404"
       cx="64.575233" />
    <linearGradient
       id="linearGradient3242-7-3-8-0-4-58-06">
      <stop
         offset="0"
         style="stop-color:#cdf87e;stop-opacity:1"
         id="stop3244-5-8-5-6-4-3-8" />
      <stop
         offset="0.26238"
         style="stop-color:#a2e34f;stop-opacity:1"
         id="stop3246-9-5-1-5-3-0-7" />
      <stop
         offset="0.66093999"
         style="stop-color:#68b723;stop-opacity:1"
         id="stop3248-7-2-0-7-5-35-9" />
      <stop
         offset="1"
         style="stop-color:#1d7e0d;stop-opacity:1"
         id="stop3250-8-2-8-5-6-40-4" />
    </linearGradient>
  </defs>
  <metadata
     id="metadata4593">
    <rdf:RDF>
      <cc:Work
         rdf:about="">
        <dc:format>image/svg+xml</dc:format>
        <dc:type
           rdf:resource="http://purl.org/dc/dcmitype/StillImage" />
        <dc:title></dc:title>
      </cc:Work>
    </rdf:RDF>
  </metadata>
  <g
     id="layer1">
    <g
       id="g5738"
       transform="translate(17,-397.0001)">
      <path
         style="fill:url(#linearGradient4753);fill-opacity:1;stroke:none"
         id="path5740"
         d="m -19,409 22,0 0,3 -22,0 0,-3 z" />
      <path
         style="fill:url(#linearGradient4755);fill-opacity:1;stroke:none"
         id="path5742"
         d="m -19,410.00523 22,0 0,1.00524 -22,0 0,-1.00524 z" />
    </g>
    <g
       id="g5744"
       transform="matrix(0.857147,0,0,0.857147,18.28575,-351.7159)">
      <path
         style="fill:url(#linearGradient4757);fill-opacity:1;stroke:#888a85;stroke-width:1.16666126;stroke-linecap:round;stroke-linejoin:round;stroke-miterlimit:4;stroke-opacity:1"
         id="path5746"
         d="m -11.416651,422.58322 5.8333106,0 0,5.83333 -5.8333106,0 0,-5.83333 z" />
      <path
         style="fill:none;stroke:url(#linearGradient4759);stroke-width:1.16666114;stroke-linecap:round;stroke-linejoin:miter;stroke-miterlimit:4;stroke-opacity:1"
         id="path5748"
         d="m -10.249987,423.75007 3.4999846,0 0,3.4999 -3.4999846,0 0,-3.4999 z" />
    </g>
  </g>
  <path
     d="m 3.5002863,3.499714 0,-2.0072863 3,0 0,2.0072863 2.007286,0 0,3 -2.007286,0 0,2.007286 -3,0 0,-2.007286 -2.0072863,0 0,-3 2.0072863,0 z"
     id="path2262"
     style="color:#000000;display:inline;overflow:visible;visibility:visible;fill:url(#radialGradient3259);fill-opacity:1;fill-rule:nonzero;stroke:none;stroke-width:0.98542738;stroke-linecap:round;stroke-linejoin:round;stroke-miterlimit:4;stroke-dasharray:none;stroke-dashoffset:0;stroke-opacity:1;marker:none;enable-background:accumulate" />
  <path
     d="m 3.5002863,3.499714 0,-2.0072863 3,0 0,2.0072863 2.007286,0 0,3 -2.007286,0 0,2.007286 -3,0 0,-2.007286 -2.0072863,0 0,-3 2.0072863,0 z"
     id="path2262-5"
     style="color:#000000;clip-rule:nonzero;display:inline;overflow:visible;visibility:visible;opacity:0.5;isolation:auto;mix-blend-mode:normal;color-interpolation:sRGB;color-interpolation-filters:linearRGB;solid-color:#000000;solid-opacity:1;fill:none;fill-opacity:1;fill-rule:nonzero;stroke:#0f5a00;stroke-width:1;stroke-linecap:round;stroke-linejoin:round;stroke-miterlimit:4;stroke-dasharray:none;stroke-dashoffset:0;stroke-opacity:1;marker:none;color-rendering:auto;image-rendering:auto;shape-rendering:auto;text-rendering:auto;enable-background:accumulate" />
  <rect
     y="1.999714"
     x="4.0002861"
     height="1"
     width="2"
     id="rect4304"
     style="color:#000000;clip-rule:nonzero;display:inline;overflow:visible;visibility:visible;opacity:0.5;isolation:auto;mix-blend-mode:normal;color-interpolation:sRGB;color-interpolation-filters:linearRGB;solid-color:#000000;solid-opacity:1;fill:#ffffff;fill-opacity:1;fill-rule:nonzero;stroke:none;stroke-width:1;stroke-linecap:round;stroke-linejoin:round;stroke-miterlimit:4;stroke-dasharray:none;stroke-dashoffset:0;stroke-opacity:1;marker:none;color-rendering:auto;image-rendering:auto;shape-rendering:auto;text-rendering:auto;enable-background:accumulate" />
  <rect
     y="6.9997139"
     x="4.0002861"
     height="1"
     width="2"
     id="rect4304-6"
     style="color:#000000;clip-rule:nonzero;display:inline;overflow:visible;visibility:visible;opacity:0.2;isolation:auto;mix-blend-mode:normal;color-interpolation:sRGB;color-interpolation-filters:linearRGB;solid-color:#000000;solid-opacity:1;fill:#ffffff;fill-opacity:1;fill-rule:nonzero;stroke:none;stroke-width:1;stroke-linecap:round;stroke-linejoin:round;stroke-miterlimit:4;stroke-dasharray:none;stroke-dashoffset:0;stroke-opacity:1;marker:none;color-rendering:auto;image-rendering:auto;shape-rendering:auto;text-rendering:auto;enable-background:accumulate" />
  <path
     style="color:#000000;clip-rule:nonzero;display:inline;overflow:visible;visibility:visible;opacity:0.4;isolation:auto;mix-blend-mode:normal;color-interpolation:sRGB;color-interpolation-filters:linearRGB;solid-color:#000000;solid-opacity:1;fill:#ffffff;fill-opacity:1;fill-rule:nonzero;stroke:none;stroke-width:1;stroke-linecap:round;stroke-linejoin:round;stroke-miterlimit:4;stroke-dasharray:none;stroke-dashoffset:0;stroke-opacity:1;marker:none;color-rendering:auto;image-rendering:auto;shape-rendering:auto;text-rendering:auto;enable-background:accumulate"
     d="m 2.0002863,3.999714 0,1 2,0 0,-1 -2,0 z m 4,0 0,1 2,0 0,-1 -2,0 z"
     id="rect4304-6-2" />
</svg>

<svg xmlns="http://www.w3.org/2000/svg" xmlns:xlink="http://www.w3.org/1999/xlink" viewBox="0 0 16 16" version="1"><defs><linearGradient id="d"><stop offset="0" stop-color="#fff"/><stop offset="1" stop-color="#fff" stop-opacity="0"/></linearGradient><linearGradient id="c"><stop offset="0" stop-color="#d3d7cf"/><stop offset="1" stop-color="#fafbfa"/></linearGradient><linearGradient id="b"><stop offset="0" stop-color="#babdb6" stop-opacity="0"/><stop offset=".2" stop-color="#babdb6"/><stop offset=".844" stop-color="#babdb6"/><stop offset="1" stop-color="#babdb6" stop-opacity="0"/></linearGradient><linearGradient id="a"><stop offset="0" stop-color="#555753" stop-opacity="0"/><stop offset=".2" stop-color="#555753"/><stop offset=".8" stop-color="#555753"/><stop offset="1" stop-color="#555753" stop-opacity="0"/></linearGradient><linearGradient gradientTransform="matrix(1.29412 0 0 1 1.706 -13)" gradientUnits="userSpaceOnUse" xlink:href="#a" id="f" y2="423.455" x2="1" y1="423.455" x1="-16"/><linearGradient gradientTransform="matrix(1.29412 0 0 1.00524 1.706 -15.21)" gradientUnits="userSpaceOnUse" xlink:href="#b" id="g" y2="423.586" x2=".587" y1="423.586" x1="-16"/><linearGradient gradientTransform="translate(-21.625 34.18) scale(.97222)" gradientUnits="userSpaceOnUse" xlink:href="#c" id="h" y2="404.598" x2="15.699" y1="401.096" x1="12.198"/><linearGradient gradientTransform="matrix(.875 0 0 .875 -20.312 73.31)" gradientUnits="userSpaceOnUse" xlink:href="#d" id="i" y2="406.511" x2="12.816" y1="400.389" x1="12.816"/><radialGradient gradientTransform="matrix(0 .3853 -.4196 0 25.39 -23.793)" gradientUnits="userSpaceOnUse" xlink:href="#e" id="j" fy="48.605" fx="64.575" r="31" cy="48.605" cx="64.575"/><linearGradient id="e"><stop offset="0" stop-color="#cdf87e"/><stop offset=".262" stop-color="#a2e34f"/><stop offset=".661" stop-color="#68b723"/><stop offset="1" stop-color="#1d7e0d"/></linearGradient></defs><path d="M-19 409H3v3h-22v-3z" fill="url(#f)" transform="translate(17 -397)"/><path d="M-19 410.005H3v1.005h-22v-1.005z" fill="url(#g)" transform="translate(17 -397)"/><g stroke-width="1.167" stroke-linecap="round"><path d="M-11.417 422.583h5.834v5.834h-5.834v-5.834z" fill="url(#h)" stroke="#888a85" stroke-linejoin="round" transform="translate(18.286 -351.716) scale(.85715)"/><path d="M-10.25 423.75h3.5v3.5h-3.5v-3.5z" fill="none" stroke="url(#i)" transform="translate(18.286 -351.716) scale(.85715)"/></g><path d="M3.5 3.5V1.492h3V3.5h2.008v3H6.5v2.007h-3V6.5H1.493v-3H3.5z" color="#000" overflow="visible" fill="url(#j)"/><path d="M3.5 3.5V1.492h3V3.5h2.008v3H6.5v2.007h-3V6.5H1.493v-3H3.5z" style="isolation:auto;mix-blend-mode:normal" color="#000" overflow="visible" opacity=".5" fill="none" stroke="#0f5a00" stroke-linecap="round" stroke-linejoin="round"/><path style="isolation:auto;mix-blend-mode:normal" color="#000" overflow="visible" opacity=".5" fill="#fff" d="M4 2h2v1H4z"/><path style="isolation:auto;mix-blend-mode:normal" color="#000" overflow="visible" opacity=".2" fill="#fff" d="M4 7h2v1H4z"/><path style="isolation:auto;mix-blend-mode:normal" d="M2 4v1h2V4H2zm4 0v1h2V4H6z" color="#000" overflow="visible" opacity=".4" fill="#fff"/></svg>
